src/shared/media/imgs/moon.svg

<!DOCTYPE svg PUBLIC "-//W3C//DTD SVG 1.1//EN" "http://www.w3.org/Graphics/SVG/1.1/DTD/svg11.dtd">
<!-- Uploaded to: SVG Repo, www.svgrepo.com, Transformed by: SVG Repo Mixer Tools -->
<svg width="800px" height="800px" viewBox="0 0 24 24" fill="none" xmlns="http://www.w3.org/2000/svg">
<g id="SVGRepo_bgCarrier" stroke-width="0"/>
<g id="SVGRepo_tracerCarrier" stroke-linecap="round" stroke-linejoin="round"/>
<g id="SVGRepo_iconCarrier"> <path d="M13 6V3M18.5 12V7M14.5 4.5H11.5M21 9.5H16M15.5548 16.8151C16.7829 16.8151 17.9493 16.5506 19 16.0754C17.6867 18.9794 14.7642 21 11.3698 21C6.74731 21 3 17.2527 3 12.6302C3 9.23576 5.02061 6.31331 7.92462 5C7.44944 6.05072 7.18492 7.21708 7.18492 8.44523C7.18492 13.0678 10.9322 16.8151 15.5548 16.8151Z" stroke="#fff" stroke-width="2" stroke-linecap="round" stroke-linejoin="round"/> </g>
</svg>

<svg xmlns="http://www.w3.org/2000/svg" width="800" height="800" viewBox="0 0 24 24" fill="none" xmlns:v="https://vecta.io/nano"><path d="M13 6V3m5.5 9V7m-4-2.5h-3m9.5 5h-5m-.445 7.315a8.34 8.34 0 0 0 3.445-.74C17.687 18.979 14.764 21 11.37 21A8.37 8.37 0 0 1 3 12.63C3 9.236 5.021 6.313 7.925 5a8.34 8.34 0 0 0-.74 3.445 8.37 8.37 0 0 0 8.37 8.37z" stroke="#fff" stroke-width="2" stroke-linecap="round" stroke-linejoin="round"/></svg>
